X: 14052
T: MARCHING TO GAVIN'S
C: Bob McQuillen 10 July'10
B: Bob's Note Book 14 #52
%R: reel
%D:2010
Z: 2020 John Chambers <jc:trillian.mit.edu>
M: % This tune lacks a time signature.
L: 1/8
P: (Slow march)
K: Bm
BA \
| F2B2 BABd | c2B2 Bcde | f2d2 BABd | efec A2BA |
| F2B2 BABd | c2BA Bcde | f3d  cBA2 | B4   B2  :|
|: de \
| f2a2 afde | f2a2 a4   | f2af e2de | fdBd A2de |
| f2a2 afde | fafd e2fe | d2B2 ABc2 | B4   B2  :|
%%begintext align
%% This is the
%% second year in a row that I haven't been able to
%% attend the Irish Arts Week in East Durham, N.Y.,
%% and I greatly miss it. I always stay at a wonderful
%% place, Gavin's Golden Hill Resort, and enjoy Jack, Margaret,
%% and Bernadette so much when I'm there. All the
%% best to you, dear friends; see you next year for sure!
%% Sl\`ainte!
%%endtext

%%sep 1 1 500

%%sep 1 1 500

